Newaita-dark/mimetypes/32/text-x-r.svg

<?xml version="1.0" encoding="UTF-8"?>
<svg xmlns="http://www.w3.org/2000/svg" xmlns:xlink="http://www.w3.org/1999/xlink" width="32px" height="32px" viewBox="0 0 32 32" version="1.1">
<defs>
<linearGradient id="linear0" gradientUnits="userSpaceOnUse" x1="254" y1="233.5" x2="254" y2="254.666672" gradientTransform="matrix(0.062506,0,0,0.062506,0.66152,13.438785)">
<stop offset="0" style="stop-color:rgb(0%,0%,0%);stop-opacity:0.27451;"/>
<stop offset="1" style="stop-color:rgb(0%,0%,0%);stop-opacity:0;"/>
</linearGradient>
<radialGradient id="radial0" gradientUnits="userSpaceOnUse" cx="450.908936" cy="189.579361" fx="450.908936" fy="189.579361" r="21.166656" gradientTransform="matrix(0.00000017417,-0.0781325,-0.140638,-0.000000101539,49.484569,63.595333)">
<stop offset="0" style="stop-color:rgb(0%,0%,0%);stop-opacity:0.313726;"/>
<stop offset="0.222222" style="stop-color:rgb(0%,0%,0%);stop-opacity:0.27451;"/>
<stop offset="1" style="stop-color:rgb(0%,0%,0%);stop-opacity:0;"/>
</radialGradient>
<radialGradient id="radial1" gradientUnits="userSpaceOnUse" cx="450.908936" cy="189.579361" fx="450.908936" fy="189.579361" r="21.166656" gradientTransform="matrix(-0.00000017417,0.0781325,0.140638,0.000000101539,-18.393049,-7.527479)">
<stop offset="0" style="stop-color:rgb(0%,0%,0%);stop-opacity:0.313726;"/>
<stop offset="0.222222" style="stop-color:rgb(0%,0%,0%);stop-opacity:0.27451;"/>
<stop offset="1" style="stop-color:rgb(0%,0%,0%);stop-opacity:0;"/>
</radialGradient>
<radialGradient id="radial2" gradientUnits="userSpaceOnUse" cx="450.908936" cy="189.579361" fx="450.908936" fy="189.579361" r="21.166656" gradientTransform="matrix(-0.00000017417,-0.0781325,0.140638,-0.000000101539,-18.393049,63.595333)">
<stop offset="0" style="stop-color:rgb(0%,0%,0%);stop-opacity:0.313726;"/>
<stop offset="0.222222" style="stop-color:rgb(0%,0%,0%);stop-opacity:0.27451;"/>
<stop offset="1" style="stop-color:rgb(0%,0%,0%);stop-opacity:0;"/>
</radialGradient>
<radialGradient id="radial3" gradientUnits="userSpaceOnUse" cx="450.908936" cy="189.579361" fx="450.908936" fy="189.579361" r="21.166656" gradientTransform="matrix(0.00000017417,0.0781325,-0.140638,0.000000101539,49.484567,-7.527479)">
<stop offset="0" style="stop-color:rgb(0%,0%,0%);stop-opacity:0.313726;"/>
<stop offset="0.222222" style="stop-color:rgb(0%,0%,0%);stop-opacity:0.27451;"/>
<stop offset="1" style="stop-color:rgb(0%,0%,0%);stop-opacity:0;"/>
</radialGradient>
<linearGradient id="linear1" gradientUnits="userSpaceOnUse" x1="940" y1="1695.118164" x2="940" y2="175.118118" gradientTransform="matrix(0.016538,0,0,0.016538,0,0)">
<stop offset="0" style="stop-color:rgb(56.470591%,79.215688%,97.647059%);stop-opacity:1;"/>
<stop offset="1" style="stop-color:rgb(73.333335%,87.058824%,98.431373%);stop-opacity:1;"/>
</linearGradient>
<linearGradient id="linear2" gradientUnits="userSpaceOnUse" x1="249.189407" y1="236.523788" x2="249.189423" y2="254.666687" gradientTransform="matrix(0.0298942,0,0,0.109385,15.042422,-16.52629)">
<stop offset="0" style="stop-color:rgb(0%,0%,0%);stop-opacity:0.27451;"/>
<stop offset="1" style="stop-color:rgb(0%,0%,0%);stop-opacity:0;"/>
</linearGradient>
<linearGradient id="linear3" gradientUnits="userSpaceOnUse" x1="338.666656" y1="233.5" x2="338.666656" y2="-168.666672" gradientTransform="matrix(0.062506,0,0,0.062506,0,13.438783)">
<stop offset="0" style="stop-color:rgb(25.882354%,64.705884%,96.078432%);stop-opacity:1;"/>
<stop offset="1" style="stop-color:rgb(39.215687%,70.980394%,96.470588%);stop-opacity:1;"/>
</linearGradient>
<linearGradient id="linear4" gradientUnits="userSpaceOnUse" x1="960" y1="1695.118164" x2="960" y2="175.118118" gradientTransform="matrix(1,0,0,1,-19.999989,0)">
<stop offset="0" style="stop-color:rgb(25.882354%,64.705884%,96.078432%);stop-opacity:1;"/>
<stop offset="1" style="stop-color:rgb(39.215687%,70.980394%,96.470588%);stop-opacity:1;"/>
</linearGradient>
</defs>
<g id="surface1">
<path style=" stroke:none;fill-rule:nonzero;fill:url(#linear0);" d="M 7.9375 28.035156 L 23.152344 28.035156 L 23.152344 29.355469 L 7.9375 29.355469 Z M 7.9375 28.035156 "/>
<path style=" stroke:none;fill-rule:nonzero;fill:url(#radial0);" d="M 23.152344 28.035156 L 25.800781 28.035156 L 25.800781 26.710938 L 23.152344 26.710938 Z M 23.152344 28.035156 "/>
<path style=" stroke:none;fill-rule:nonzero;fill:url(#radial1);" d="M 7.9375 28.035156 L 5.292969 28.035156 L 5.292969 29.355469 L 7.9375 29.355469 Z M 7.9375 28.035156 "/>
<path style=" stroke:none;fill-rule:nonzero;fill:url(#radial2);" d="M 7.9375 28.035156 L 5.292969 28.035156 L 5.292969 26.710938 L 7.9375 26.710938 Z M 7.9375 28.035156 "/>
<path style=" stroke:none;fill-rule:nonzero;fill:url(#radial3);" d="M 23.152344 28.035156 L 25.800781 28.035156 L 25.800781 29.355469 L 23.152344 29.355469 Z M 23.152344 28.035156 "/>
<path style=" stroke:none;fill-rule:nonzero;fill:url(#linear1);" d="M 18.542969 2.894531 L 6.613281 2.894531 C 5.882812 2.894531 5.292969 3.484375 5.292969 4.21875 L 5.292969 26.710938 C 5.292969 27.445312 5.882812 28.035156 6.613281 28.035156 L 24.476562 28.035156 C 25.210938 28.035156 25.800781 27.445312 25.800781 26.710938 L 25.800781 10.152344 Z M 18.542969 2.894531 "/>
<path style=" stroke:none;fill-rule:nonzero;fill:url(#linear2);" d="M 18.523438 9.015625 L 24.808594 9.015625 L 25.800781 10.007812 L 25.800781 11.332031 L 18.523438 11.332031 Z M 18.523438 9.015625 "/>
<path style=" stroke:none;fill-rule:nonzero;fill:rgb(0%,0%,0%);fill-opacity:0.235294;" d="M 5.292969 26.195312 L 5.292969 26.710938 C 5.292969 27.445312 5.882812 28.035156 6.613281 28.035156 L 24.476562 28.035156 C 25.210938 28.035156 25.800781 27.445312 25.800781 26.710938 L 25.800781 26.195312 C 25.800781 26.929688 25.210938 27.519531 24.476562 27.519531 L 6.613281 27.519531 C 5.882812 27.519531 5.292969 26.929688 5.292969 26.195312 Z M 5.292969 26.195312 "/>
<path style=" stroke:none;fill-rule:nonzero;fill:rgb(100%,100%,100%);fill-opacity:0.392157;" d="M 6.613281 2.894531 C 5.882812 2.894531 5.292969 3.484375 5.292969 4.21875 L 5.292969 4.714844 C 5.292969 3.980469 5.882812 3.390625 6.613281 3.390625 L 18.542969 3.390625 L 25.800781 10.648438 L 25.800781 10.152344 L 18.542969 2.894531 Z M 6.613281 2.894531 "/>
<path style=" stroke:none;fill-rule:nonzero;fill:url(#linear3);" d="M 25.800781 10.152344 L 18.542969 2.894531 L 18.542969 8.832031 C 18.542969 9.5625 19.132812 10.152344 19.863281 10.152344 Z M 25.800781 10.152344 "/>
<path style=" stroke:none;fill-rule:nonzero;fill:rgb(0%,0%,0%);fill-opacity:0.235294;" d="M 18.542969 8.519531 L 18.542969 8.832031 C 18.542969 9.5625 19.132812 10.152344 19.863281 10.152344 L 25.800781 10.152344 L 25.488281 9.84375 L 19.863281 9.84375 C 19.132812 9.84375 18.542969 9.253906 18.542969 8.519531 Z M 18.542969 8.519531 "/>
<path style=" stroke:none;fill-rule:nonzero;fill:rgb(100%,100%,100%);fill-opacity:0.392157;" d="M 18.542969 2.894531 L 18.542969 3.390625 L 25.304688 10.152344 L 25.800781 10.152344 Z M 18.542969 2.894531 "/>
<path style=" stroke:none;fill-rule:nonzero;fill:rgb(12.941177%,12.941177%,12.941177%);fill-opacity:1;" d="M 18.539062 2.800781 C 18.488281 2.804688 18.449219 2.84375 18.449219 2.894531 L 18.449219 8.832031 C 18.449219 9.613281 19.082031 10.246094 19.863281 10.246094 L 25.800781 10.246094 C 25.835938 10.246094 25.871094 10.222656 25.886719 10.1875 C 25.902344 10.152344 25.890625 10.113281 25.867188 10.085938 L 18.609375 2.828125 C 18.589844 2.8125 18.566406 2.800781 18.539062 2.800781 Z M 18.636719 3.121094 L 25.574219 10.058594 L 19.863281 10.058594 C 19.183594 10.058594 18.636719 9.511719 18.636719 8.832031 Z M 18.636719 3.121094 "/>
<path style=" stroke:none;fill-rule:nonzero;fill:rgb(12.941177%,12.941177%,12.941177%);fill-opacity:1;" d="M 6.613281 2.800781 C 5.832031 2.800781 5.199219 3.4375 5.199219 4.21875 L 5.199219 26.710938 C 5.199219 27.496094 5.832031 28.128906 6.613281 28.128906 L 24.476562 28.128906 C 25.257812 28.128906 25.894531 27.496094 25.894531 26.710938 L 25.894531 10.152344 C 25.894531 10.128906 25.882812 10.105469 25.867188 10.085938 L 18.609375 2.828125 C 18.589844 2.8125 18.566406 2.800781 18.542969 2.800781 Z M 6.613281 2.988281 L 18.503906 2.988281 L 25.707031 10.191406 L 25.707031 26.710938 C 25.707031 27.394531 25.160156 27.941406 24.476562 27.941406 L 6.613281 27.941406 C 5.933594 27.941406 5.386719 27.394531 5.386719 26.710938 L 5.386719 4.21875 C 5.386719 3.535156 5.933594 2.988281 6.613281 2.988281 Z M 6.613281 2.988281 "/>
<path style="fill-rule:nonzero;fill:url(#linear4);stroke-width:11.338583;stroke-linecap:round;stroke-linejoin:round;stroke:rgb(12.941177%,12.941177%,12.941177%);stroke-opacity:1;stroke-miterlimit:4;" d="M 760.084936 695.130505 C 748.983633 695.130505 740.008112 704.106027 740.008112 715.207329 L 740.008112 1235.078971 C 740.008112 1246.180274 748.983633 1255.155795 760.084936 1255.155795 L 800.002386 1255.155795 C 811.103688 1255.155795 820.07921 1246.180274 820.07921 1235.078971 L 820.07921 975.025051 L 903.220881 975.025051 L 1060.7649 1247.833659 C 1066.197452 1257.281577 1078.479744 1260.588348 1087.927661 1255.155795 L 1122.648757 1235.078971 C 1132.332872 1229.646419 1135.639643 1217.364126 1129.970893 1207.680011 L 995.574271 975.025051 L 1000.062032 975.025051 C 1077.534952 975.025051 1139.891206 913.141194 1139.891206 836.376867 L 1139.891206 834.014888 C 1139.891206 757.014363 1077.534952 695.130505 1000.062032 695.130505 Z M 820.07921 775.201603 L 1000.062032 775.201603 C 1033.129742 775.201603 1060.056306 801.891969 1060.056306 835.195877 C 1060.056306 868.263587 1033.129742 895.190151 1000.062032 895.190151 L 820.07921 895.190151 Z M 820.07921 775.201603 " transform="matrix(0.016538,0,0,0.016538,0,0)"/>
</g>
</svg>

<svg xmlns="http://www.w3.org/2000/svg" width="32pt" height="32pt" viewBox="0 0 32 32"><defs><linearGradient id="a" gradientUnits="userSpaceOnUse" x1="254" y1="233.5" x2="254" y2="254.667" gradientTransform="matrix(.0625 0 0 .0625 .662 13.439)"><stop offset="0" stop-opacity=".275"/><stop offset="1" stop-opacity="0"/></linearGradient><radialGradient id="b" gradientUnits="userSpaceOnUse" cx="450.909" cy="189.579" fx="450.909" fy="189.579" r="21.167" gradientTransform="matrix(0 -.07813 -.14064 0 49.485 63.595)"><stop offset="0" stop-opacity=".314"/><stop offset=".222" stop-opacity=".275"/><stop offset="1" stop-opacity="0"/></radialGradient><radialGradient id="c" gradientUnits="userSpaceOnUse" cx="450.909" cy="189.579" fx="450.909" fy="189.579" r="21.167" gradientTransform="matrix(0 .07813 .14064 0 -18.393 -7.527)"><stop offset="0" stop-opacity=".314"/><stop offset=".222" stop-opacity=".275"/><stop offset="1" stop-opacity="0"/></radialGradient><radialGradient id="d" gradientUnits="userSpaceOnUse" cx="450.909" cy="189.579" fx="450.909" fy="189.579" r="21.167" gradientTransform="matrix(0 -.07813 .14064 0 -18.393 63.595)"><stop offset="0" stop-opacity=".314"/><stop offset=".222" stop-opacity=".275"/><stop offset="1" stop-opacity="0"/></radialGradient><radialGradient id="e" gradientUnits="userSpaceOnUse" cx="450.909" cy="189.579" fx="450.909" fy="189.579" r="21.167" gradientTransform="matrix(0 .07813 -.14064 0 49.485 -7.527)"><stop offset="0" stop-opacity=".314"/><stop offset=".222" stop-opacity=".275"/><stop offset="1" stop-opacity="0"/></radialGradient><linearGradient id="f" gradientUnits="userSpaceOnUse" x1="940" y1="1695.118" x2="940" y2="175.118" gradientTransform="rotate(.891) scale(.01654)"><stop offset="0" stop-color="#90caf9"/><stop offset="1" stop-color="#bbdefb"/></linearGradient><linearGradient id="g" gradientUnits="userSpaceOnUse" x1="249.189" y1="236.524" x2="249.189" y2="254.667" gradientTransform="matrix(.0299 0 0 .10938 15.042 -16.526)"><stop offset="0" stop-opacity=".275"/><stop offset="1" stop-opacity="0"/></linearGradient><linearGradient id="h" gradientUnits="userSpaceOnUse" x1="338.667" y1="233.5" x2="338.667" y2="-168.667" gradientTransform="matrix(.0625 0 0 .0625 0 13.439)"><stop offset="0" stop-color="#42a5f5"/><stop offset="1" stop-color="#64b5f6"/></linearGradient><linearGradient id="i" gradientUnits="userSpaceOnUse" x1="960" y1="1695.118" x2="960" y2="175.118" gradientTransform="translate(-20)"><stop offset="0" stop-color="#42a5f5"/><stop offset="1" stop-color="#64b5f6"/></linearGradient></defs><path d="M7.938 28.035h15.214v1.32H7.937zm0 0" fill="url(#a)"/><path d="M23.152 28.035h2.649v-1.324h-2.649zm0 0" fill="url(#b)"/><path d="M7.938 28.035H5.293v1.32h2.644zm0 0" fill="url(#c)"/><path d="M7.938 28.035H5.293v-1.324h2.644zm0 0" fill="url(#d)"/><path d="M23.152 28.035h2.649v1.32h-2.649zm0 0" fill="url(#e)"/><path d="M18.543 2.895H6.613c-.73 0-1.32.59-1.32 1.324V26.71c0 .734.59 1.324 1.32 1.324h17.864a1.32 1.32 0 0 0 1.324-1.324V10.152zm0 0" fill="url(#f)"/><path d="M18.523 9.016h6.286l.992.992v1.324h-7.278zm0 0" fill="url(#g)"/><path d="M5.293 26.195v.516c0 .734.59 1.324 1.32 1.324h17.864a1.32 1.32 0 0 0 1.324-1.324v-.516a1.32 1.32 0 0 1-1.324 1.325H6.613c-.73 0-1.32-.59-1.32-1.325zm0 0" fill-opacity=".235"/><path d="M6.613 2.895c-.73 0-1.32.59-1.32 1.324v.496c0-.735.59-1.324 1.32-1.324h11.93l7.258 7.257v-.496l-7.258-7.257zm0 0" fill="#fff" fill-opacity=".392"/><path d="M25.8 10.152l-7.257-7.257v5.937c0 .73.59 1.32 1.32 1.32zm0 0" fill="url(#h)"/><path d="M18.543 8.52v.312c0 .73.59 1.32 1.32 1.32h5.938l-.313-.308h-5.625c-.73 0-1.32-.59-1.32-1.324zm0 0" fill-opacity=".235"/><path d="M18.543 2.895v.496l6.762 6.761h.496zm0 0" fill="#fff" fill-opacity=".392"/><path d="M18.54 2.8a.094.094 0 0 0-.09.095v5.937c0 .781.632 1.414 1.413 1.414h5.938c.035 0 .07-.023.086-.059.015-.035.004-.074-.02-.101L18.61 2.828a.112.112 0 0 0-.07-.027zm.097.321l6.937 6.938h-5.71c-.68 0-1.227-.547-1.227-1.227zm0 0" fill="#212121"/><path d="M6.613 2.8C5.832 2.8 5.2 3.439 5.2 4.22V26.71c0 .785.633 1.418 1.414 1.418h17.864c.78 0 1.418-.633 1.418-1.418V10.152a.11.11 0 0 0-.028-.066L18.61 2.828a.11.11 0 0 0-.066-.027zm0 .188h11.89l7.204 7.203v16.52c0 .684-.547 1.23-1.23 1.23H6.613c-.68 0-1.226-.546-1.226-1.23V4.219c0-.684.547-1.23 1.226-1.23zm0 0" fill="#212121"/><path d="M760.085 695.13c-11.101 0-20.077 8.976-20.077 20.077v519.872c0 11.101 8.976 20.077 20.077 20.077h39.917c11.102 0 20.077-8.976 20.077-20.077V975.025h83.142l157.544 272.809c5.432 9.448 17.715 12.754 27.163 7.322l34.72-20.077c9.685-5.433 12.992-17.715 7.323-27.399L995.574 975.025h4.488c77.473 0 139.83-61.884 139.83-138.648v-2.362c0-77-62.357-138.884-139.83-138.884zm59.994 80.072h179.983c33.068 0 59.994 26.69 59.994 59.994 0 33.068-26.926 59.994-59.994 59.994H820.079zm0 0" transform="rotate(.891) scale(.01654)" fill="url(#i)" stroke-width="11.339" stroke-linecap="round" stroke-linejoin="round" stroke="#212121"/></svg>
